X: 1
T: String Quartet in A Major opus 55 no 1 mvt 2
C: Franz Joseph Haydn
%%abc-version 2.0
%%abcx-abcm2ps-target-version 5.9.1 (29 Sep 2008)
%%abc-creator hum2abc beta
%%abcx-conversion-date 2021/02/14 14:38:36
%%abc-copyright Copyright (c) 1994, 2000 Center for Computer Assisted Research in the Humanities
%%abc-edited-by Walter Hewlett
%%abcx-initial-encoding-date 1994/09/16
%%gracespace 0 6 6
%%humdrum-veritas 2940675890
%%humdrum-veritas-data 1181432989
%%linebreak <none>
%%barnumbers 0
L: 1/16
M: 2/4
N: Derived from op55n1-02.krn
Q: "Adagio cantabile"
%%staves [1 2 3 4]
V: 1 clef=treble
V: 2 clef=treble
V: 3 clef=alto
V: 4 clef=bass
K: D
[V:1]z8 [I:setbarnb2]|
[V:2]A4 B3c/d/ |
[V:3]D,2F2 D2G2 |
[V:4]F,,2D,,2 G,,2D,,2 |
[V:1]z8 |
[V:2]dAA2- AB/A/G/F/E/D/ |
[V:3]D2F2 D2z2 |
[V:4]F,,2D,,2 F,,2D,,2 |
[V:1]z8 |
[V:2]C>A,D>A, G2F/E/F/G/ |
[V:3]G,2F,2 C2D/C/D/E/ |
[V:4]A,,8- |
[V:1]z8 |
[V:2]F4 EFG^G |
[V:3]D4 C2z2 |
[V:4]A,,2^G,2 A,2z2 |
[V:1]z8 |
[V:2]A4 B3c/d/ |
[V:3]D,2F2 D2G2 |
[V:4]F,,2D,,2 G,,2D,,2 |
[V:1]z8 |
[V:2]dAA2- A.B/.c/.d/.e/.f/.g/ |
[V:3]D2F2 .D2z2 |
[V:4]F,,2D,,2 .F,,2z2 |
[V:1]z8 |
[V:2]a2z>f d2e/d/e/f/ |
[V:3]z4 F2G/F/G/A/ |
[V:4]z4 A,,2A,,2 |
[V:1]z8 |
[V:2].d.d.c.B .A.G.F.E |
[V:3].F.B.A.G .F.B,.A,.G, |
[V:4]D,,4 z4 |
[V:1]a4 b3c'/d'/ |
[V:2]D2F2 B,2G2 |
[V:3]F,2D,2 G,2D,2 |
[V:4]D,,8- |
[V:1]d'aa2- ab/a/g/f/e/d/ |
[V:2]A,2F2 D2F2 |
[V:3]F,2D,2 F,2D,2 |
[V:4]D,,8 |
[V:1]c>Ad>A g2f/e/f/g/ |
[V:2]G2F2 c2d/c/d/e/ |
[V:3]E,2D,2 E2D2 |
[V:4]A,,8- |
[V:1]f4 efg^g |
[V:2]d4 c2z2 |
[V:3]A,2z2 z4 |
[V:4]A,,2A,/^G,/B,/G,/ A,2z2 |
[V:1]a4 b3c'/d'/ |
[V:2]D2F2 B,2G2 |
[V:3]F,2D,2 G,2D,2 |
[V:4]D,,8- |
[V:1]d'aa2- a.b/.c'/.d'/.e'/.f'/.g'/ |
[V:2]A,2F2 D2z2 |
[V:3]F,2D,2 F,2z2 |
[V:4]D,,4 z4 |
[V:1]a'2z>f' d'2e'/d'/e'/f'/ |
[V:2]z4 F2G/F/G/A/ |
[V:3]z4 D2C2 |
[V:4]z4 A,,2A,,2 |
[V:1]d'4 z4 |
[V:2]F2z2 G2G/F/G/A/ |
[V:3]D2z2 B,2C2 |
[V:4]D,D,D,D, D,D,D,D, |
[V:1]z/.d/.e/.f/.g/.a/.b/.c'/ d'2z2 |
[V:2]F3G/A <Bc/d/c/d/B/ |
[V:3]D2z2 G>AB/A/B/G/ |
[V:4]D,D,D,D, D,D,D,D, |
[V:1]z/.A/.B/.c/.d/.e/.f/.g/ a2a/^g/a/b/ |
[V:2]A2z2 z4 |
[V:3]F2z2 FFFF |
[V:4]D,D,D,D, DDDD |
[V:1]a2z2 a2a/^g/a/b/ |
[V:2]A2A/^G/A/B/ A2z2 |
[V:3]EEEE EEEE |
[V:4]CCCC CCCC |
[V:1]^gd'2c'2 b2^a- |
[V:2]db2a2 f2c- |
[V:3]DE2E2 F2=G- |
[V:4]B,^G,2A,2 D2E- |
[V:1]ab2^a bab=a |
[V:2]cd2c dcdf |
[V:3]GF2G FGFF |
[V:4]ED2E DED^D |
[V:1]^g.e.e.e .e.e.e.e |
[V:2]B2z.e .=d.d.d.d |
[V:3]E2z2 z4 |
[V:4]E2>E2 =F^F=G^G |
[V:1]e4 f3^g/a/ |
[V:2]c2Ac AdAd |
[V:3]CA,CA, DA,DA, |
[V:4]A4 z4 |
[V:1]aee2- e^ef/^g/g/a/ |
[V:2]AcAc AcAd |
[V:3]CA,CA, CA,DA, |
[V:4]z2(3:2:6A,,/C,/E,/A,/C/ E/A2z2 |
[V:1]a=ee2- e^ef/^g/g/a/ |
[V:2]AcAc AcAd |
[V:3]CA,CA, CA,DA, |
[V:4]z2(3:2:6A,,/C,/E,/A,/C/ E/A2z2 |
[V:1]a4 _b4 |
[V:2]ceee eecc |
[V:3]Accc ccee |
[V:4][K:clef=tenor]AAA A=GGG G|
[V:1]a4 =c'4 |
[V:2]dddd ^dddd |
[V:3]AAAA AAAA |
[V:4]FFFF =FFFF |
[V:1]c'2z>c' e'/c'/b/d'/c'/a/c'/b/ |
[V:2]e4 z4 |
[V:3]A4 z4 |
[V:4]E4 z4 |
[V:1]^g/b/a/f/a/g/e/g/ f/d/f/e/c/e/d/B/ |
[V:2]z8 |
[V:3]z8 |
[V:4]z8 [K:clef=bass]|
[V:1]d/c/A/c/B/^G/B/A/ F/A/G/E/G/F/D/F/ |
[V:2]d/c/A/c/B/^G/B/A/ F/A/G/E/G/F/D/F/ |
[V:3]d/c/A/c/B/^G/B/A/ F/A/G/E/G/F/D/F/ |
[V:4]D/C/A,/C/B,/^G,/B,/A,/ F,/A,/G,/E,/G,/F,/D,/F,/ |
[V:1]E/C/A/C/A/D/A/^D/ A/E/A/=F/A/E/A/D/ |
[V:2]E/C/A/C/A/D/A/^D/ A/E/A/=F/A/E/A/D/ |
[V:3]E/C/A/C/A/D/A/^D/ A/E/A/=F/A/E/A/D/ |
[V:4]E,/C,/A,/C,/A,/D,/A,/^D,/ A,/E,/A,/=F,/A,/E,/A,/D,/ |
[V:1]E/A/c/e/a/c'/.e'/.e'/ .e'/.e'/.e'/.e'/e'/^d'/=d'/c'/ |
[V:2]E/A/c/e/z2 z4 |
[V:3]E/A/c/e/z2 z4 |
[V:4]E,/A,/C/E/z2 z4 |
[V:1]!trill!b8 |
[V:2]D2z2 d4 |
[V:3]^G,2z2 ^G4 |
[V:4]E,2z2 E4 |
[V:1]a8- |
[V:2]cAB/A/B/d/ ccd/c/d/f/ |
[V:3]A2z2 A,A,B,/A,/B,/D/ |
[V:4]A,4 z4 |
[V:1]a8- |
[V:2]eef/e/f/a/ g4 |
[V:3]CCD/C/D/F/ E4 |
[V:4]z4 z/.C,,/.E,,/.A,,/.C,/.E,/.A,/.C/ |
[V:1]a4 b3c'/d'/ |
[V:2]DFDF DGDG |
[V:3]F,D,F,D, G,D,G,D, |
[V:4]D4 z4 |
[V:1]d'aa2- ab/a/g/f/e/d/ |
[V:2]DFDF DFDF |
[V:3]F,D,F,D, F,D,F,F |
[V:4]D,,4 z4 |
[V:1]c>Ad>A g2f/e/f/g/ |
[V:2]A,GA,F Ecd/c/d/e/ |
[V:3]GA,FA, CA,DA, |
[V:4]A,,4 z4 |
[V:1]f4 efg^g |
[V:2]d4 c2z2 |
[V:3]AA,A/^G/B/G/ A2z2 |
[V:4]A,,4 z4 |
[V:1]a4 b3c'/d'/ |
[V:2][F2A,2]z2 z4 |
[V:3]D2z2 z4 |
[V:4].D,,/.F,,/.A,,/.D,/.F,/.A,/.D/.F/ GDGD |
[V:1]d'aa2- a.b/.c'/.d'/.e'/.f'/.g'/ |
[V:2]z8 |
[V:3]z8 |
[V:4]FDFD F2z2 |
[V:1]a'2z>f' d'2e'/d'/e'/f'/ |
[V:2]z4 F2G/F/G/A/ |
[V:3]z4 D2C2 |
[V:4]z4 A,2A,,2 |
[V:1]d'4 _b4 |
[V:2]D=FDF DGDG |
[V:3]A,4 _B,4 |
[V:4]=F,,D,,F,,D,, G,,D,,G,,D,, |
[V:1]c4 d4 |
[V:2]EGEG =FADF |
[V:3]GEGE D=F.A.A |
[V:4]_B,,D,,B,,D,, A,,D,,=F,,D, |
[V:1]e4 =f2f/e/f/g/ |
[V:2]A4 ^G4 |
[V:3]A4 d2d/c/d/e/ |
[V:4]C,A,,C,A,, D,A,,D,A,, |
[V:1].e2.e2 .e2z2 |
[V:2]Acec A2z2 |
[V:3].c2.c2 .c2z2 |
[V:4]A,A,,C,E, A,_B,A,G, |
[V:1]=f6 eg |
[V:2]z4 =G4- |
[V:3]=FCDA, _B,G,=CB, |
[V:4]=F,4 z4 |
[V:1]a4 g4- |
[V:2]G2=F=f f4 |
[V:3]A,4 D4 |
[V:4]=F,=C,D,A,, _B,,A,,B,,=B,, |
[V:1]g2a2 _b2a2 |
[V:2]e2=f2 g2f2 |
[V:3]_B,2A,2 E,2=F,2 |
[V:4]=C,=C,,C,C,, ^C,,^C,D,,D, |
[V:1]g2-(3:2:6g/a/_b/d'/b/ g/=f2g3/ f/|
[V:2]d2>_B2 A2B3/A/ |
[V:3]D4 =C2E2 |
[V:4]_B,,D,G,_B, =C=C,CC, |
[V:1]=f4 a4 |
[V:2]A4 =f4- |
[V:3]=F4 zE,=F,A, |
[V:4]=F,=C,A,,=F,, z4 |
[V:1]g4 =f2f/e/f/g/ |
[V:2]f2e4 d/c/d/e/ |
[V:3]_B,=B,=C^C D=FG^G |
[V:4]z8 |
[V:1]=f4 ee^fg |
[V:2]d4 ccde |
[V:3]A_BA^G A=GFE |
[V:4]z8 |
[V:1]a4 b3c'/d'/ |
[V:2]dFDF DGDG |
[V:3]D4 z4 |
[V:4]F,,D,,F,,D,, G,,D,,G,,D,, |
[V:1]d'aa2- ab/a/g/f/e/d/ |
[V:2]DFDF DFDF |
[V:3]z2(3:2:6D,/F,/A,/D/F/ A/d2z2 |
[V:4]F,,D,,F,,D,, F,,D,,D,F, |
[V:1]c>Ad>A g2f/e/f/g/ |
[V:2]A,GA,F E2D/C/D/E/ |
[V:3]z8 |
[V:4]G,A,,F,A,, C,A,,D,^G,, |
[V:1]f4 efg^g |
[V:2]D4 C2z2 |
[V:3]z8 |
[V:4]A,,^G,A,/G,/B,/G,/ A,2z2 |
[V:1]a4 b3c'/d'/ |
[V:2]DFDF DGDG |
[V:3]FDFD GDGD |
[V:4]z8 |
[V:1]d'aa2- a.b/.c'/.d'/.e'/.f'/.g'/ |
[V:2]DFDF D2z2 |
[V:3]FDFD F2z2 |
[V:4]D,,/C,,/D,,/C,,/D,,/C,,/D,,/C,,/ D,,2z2 |
[V:1]a'2z2 z.d'.d'.d' |
[V:2]z/.F/.G/.A/.B/.c/.d/.e/ .f.f.f.f |
[V:3]z/.D/.E/.F/.G/.A/.B/.c/ .d.d.d.d |
[V:4]z4 z/D,/C,/=C,/B,,/_B,,/A,,/^G,,/ |
[V:1]d'4 d'/c'/a/c'/b/g/b/a/ |
[V:2]f4 z4 |
[V:3]d2z2 z4 |
[V:4]A,,4 z4 |
[V:1]f/a/g/e/g/f/d/f/ e/c/e/d/B/d/c/A/ |
[V:2]D/^D/E/G/C/=D/F/B,/ C/E/^A,/B,/D/^G,/=A,/C/ |
[V:3]z8 |
[V:4]z8 |
[V:1]B/A/d/c/B/A/d/c/ f/e/g/f/e/d/g/f/ |
[V:2]F/E/^G/A/F/E/G/A/ G/A/c/d/B/A/c/d/ |
[V:3]D/C/B,/A,/D/C/B,/A,/ D/C/E/D/G/F/E/D/ |
[V:4]z8 |
[V:1]e/d/g/f/b/d/c/d/ .c/=c/B/c/.B/_B/A/B/ |
[V:2]B/A/c/d/D/B/A/B/ .A/A/G/A/.G/G/F/G/ |
[V:3]G/F/E/D/G/=F/E/F/ .E/_E/D/E/.D/C/D/C/ |
[V:4]z2G,/^G,/A,/G,/ .A,/F,/=G,/F,/.G,/E,/F,/E,/ |
[V:1].A/G/F/G/.F/.D/.C/.D/ .=B,/.D/.A,/.D/.^G,/.D/.F/.D/ |
[V:2].F/E/D/E/.D/.D/.C/.D/ .B,/.D/.A,/.D/.^G,/.D/.F/.D/ |
[V:3].D/B,/A,/G,/.F,/.D/.C/.D/ .B,/.D/.A,/.D/.^G,/.D/.F/.D/ |
[V:4].F,/G,,/A,,/^A,,/.B,,/.D,/.C,/.D,/ .B,,/.D,/.=A,,/.D,/.^G,,/.D,/.F,/.D,/ |
[V:1].F/.C/.D/.E/.F/.G/.A/.B/ .c/.d/.e/.f/.g/.a/.b/.c'/ |
[V:2].D/.=G,/.A,/.B,/.C/.D/.E/.F/ .G/.A/.B/.c/.d/.e/.f/.g/ |
[V:3].A,/.E,/.F,/.G,/.A,/.B,/.C/.D/ .E/.F/.G/.A/.B/.c/.d/.e/ |
[V:4]A,,4 z4 |
[V:1].d'2z2 !fermata!!trill!e4 |
[V:2]a2z2 !fermata!!trill!c4 |
[V:3].f2z2 !fermata!!trill!G4 |
[V:4]z4 !fermata!A,,4 |
[V:1]d2z2 b3c'/d'/ |
[V:2]dFDF DGDG |
[V:3]FD,F,D, G,D,G,D, |
[V:4]D,,4 z4 |
[V:1]d'aa2 g/f/g/b/a/g/f/g/ |
[V:2]DFDF E4 |
[V:3]F,D,F,D, C4 |
[V:4]D,,//C,,//D,,//C,,//D,,//C,,//D,,//C,,//D,,D,, D,,D,,D,,D,, |
[V:1]f2z2 B3c/d/ |
[V:2]DFDF DGDG |
[V:3]DD,F,D, G,D,G,D, |
[V:4]D,,2z2 z4 |
[V:1]d>AA>d c/d/.e/.f/.g/.a/.b/.c'/ |
[V:2]DFDF G4 |
[V:3]F,D,F,D, E4 |
[V:4]D,,//C,,//D,,//C,,//D,,//C,,//D,,//C,,//D,,D,, D,,D,,D,,D,, |
[V:1]d'2z2 g4 |
[V:2]F2z2 .C/.D/.E/.F/.G/.A/.B/.c/ |
[V:3]D2z2 E,/F,/.G,/.A,/.B,/.C/.D/.E/ |
[V:4]D,,2z2 A,,4 |
[V:1]f2z2 G4 |
[V:2]d2z2 C3E |
[V:3]F2z2 E,/F,/G,/^G,/A,/_B,/=B,/=C//^C// |
[V:4]D,,2z2 A,,4 |
[V:1].F2.D2 D2z2 |]
[V:2].D2.A,2 A,2z2 |]
[V:3].D2.F,2 F,2z2 |]
[V:4].D,,2.D,,2 D,,2z2 |]

